static/fa/svgs/solid/chart-bar.svg

<svg xmlns="http://www.w3.org/2000/svg" viewBox="0 0 512 512"><!--! Font Awesome Free 6.1.1 by @fontawesome - https://fontawesome.com License - https://fontawesome.com/license/free (Icons: CC BY 4.0, Fonts: SIL OFL 1.1, Code: MIT License) Copyright 2022 Fonticons, Inc.--><path d="M32 32c17.67 0 32 14.33 32 32v336c0 8.8 7.16 16 16 16h400c17.7 0 32 14.3 32 32s-14.3 32-32 32H80c-44.18 0-80-35.8-80-80V64c0-17.67 14.33-32 32-32zm96 96c0-17.7 14.3-32 32-32h192c17.7 0 32 14.3 32 32s-14.3 32-32 32H160c-17.7 0-32-14.3-32-32zm160 64c17.7 0 32 14.3 32 32s-14.3 32-32 32H160c-17.7 0-32-14.3-32-32s14.3-32 32-32h128zm128 96c17.7 0 32 14.3 32 32s-14.3 32-32 32H160c-17.7 0-32-14.3-32-32s14.3-32 32-32h256z"/></svg>

<svg xmlns="http://www.w3.org/2000/svg" viewBox="0 0 512 512"><!--! Font Awesome Free 6.1.1 by @fontawesome - https://fontawesome.com License - https://fontawesome.com/license/free (Icons: CC BY 4.0, Fonts: SIL OFL 1.1, Code: MIT License) Copyright 2022 Fonticons, Inc. --><path d="M32 32C49.67 32 64 46.33 64 64V400C64 408.8 71.16 416 80 416H480C497.7 416 512 430.3 512 448C512 465.7 497.7 480 480 480H80C35.82 480 0 444.2 0 400V64C0 46.33 14.33 32 32 32zM128 128C128 110.3 142.3 96 160 96H352C369.7 96 384 110.3 384 128C384 145.7 369.7 160 352 160H160C142.3 160 128 145.7 128 128zM288 192C305.7 192 320 206.3 320 224C320 241.7 305.7 256 288 256H160C142.3 256 128 241.7 128 224C128 206.3 142.3 192 160 192H288zM416 288C433.7 288 448 302.3 448 320C448 337.7 433.7 352 416 352H160C142.3 352 128 337.7 128 320C128 302.3 142.3 288 160 288H416z"/></svg>
